packages/icons/svg/Outline/refresh.svg

<svg width="24" height="24" viewBox="0 0 24 24" fill="none" xmlns="http://www.w3.org/2000/svg">
<g id="Icon/Outline/refresh">
<path id="Mask" fill-rule="evenodd" clip-rule="evenodd" d="M20.3032 13.4258C19.7772 13.2588 19.2152 13.5498 19.0472 14.0758C18.1102 17.0218 15.3522 18.9998 12.1842 18.9998C8.22224 18.9998 5.00024 15.8598 5.00024 11.9998C5.00024 8.14079 8.22224 4.99979 12.1842 4.99979C13.9122 4.99979 15.5422 5.60179 16.8292 6.66979L14.6632 6.31279C14.1132 6.21279 13.6032 6.59179 13.5132 7.13579C13.4232 7.68079 13.7922 8.19579 14.3372 8.28479L18.5832 8.98679C18.6382 8.99579 18.6942 8.99979 18.7472 8.99979C18.8662 8.99979 18.9822 8.97879 19.0902 8.93879C19.1272 8.92479 19.1572 8.89879 19.1932 8.87979C19.2592 8.84579 19.3282 8.81579 19.3852 8.76779C19.4212 8.73879 19.4442 8.69679 19.4752 8.66279C19.5222 8.61379 19.5722 8.56679 19.6072 8.50679C19.6322 8.46379 19.6422 8.41279 19.6612 8.36479C19.6852 8.30579 19.7172 8.25079 19.7292 8.18579L20.4832 4.18579C20.5852 3.64279 20.2282 3.11879 19.6852 3.01779C19.1442 2.91979 18.6192 3.27279 18.5172 3.81479L18.2452 5.25579C16.5812 3.81479 14.4482 2.99979 12.1842 2.99979C7.12024 2.99979 3.00024 7.03679 3.00024 11.9998C3.00024 16.9628 7.12024 20.9998 12.1842 20.9998C16.2262 20.9998 19.7502 18.4608 20.9532 14.6818C21.1202 14.1558 20.8292 13.5938 20.3032 13.4258Z" fill="#000000"/>
</g>
</svg>

<svg fill="none" height="24" viewBox="0 0 24 24" width="24" xmlns="http://www.w3.org/2000/svg"><path clip-rule="evenodd" d="m20.3032 13.4258c-.526-.167-1.088.124-1.256.65-.937 2.946-3.695 4.924-6.863 4.924-3.96202 0-7.18402-3.14-7.18402-7 0-3.85904 3.222-7.00004 7.18402-7.00004 1.728 0 3.358.602 4.645 1.67l-2.166-.357c-.55-.1-1.06.279-1.15.823-.09.545.279 1.06.824 1.149l4.246.702c.055.009.111.013.164.013.119 0 .235-.021.343-.061.037-.014.067-.04.103-.059.066-.034.135-.064.192-.112.036-.029.059-.071.09-.105.047-.049.097-.096.132-.156.025-.043.035-.094.054-.142.024-.059.056-.114.068-.179l.754-4c.102-.543-.255-1.067-.798-1.168-.541-.098-1.066.255-1.168.797l-.272 1.441c-1.664-1.441-3.797-2.256-6.061-2.256-5.06402 0-9.18402 4.037-9.18402 9.00004 0 4.963 4.12 9 9.18402 9 4.042 0 7.566-2.539 8.769-6.318.167-.526-.124-1.088-.65-1.256" fill="#6b7280" fill-rule="evenodd"/></svg>
